remix/Document/file-damage-fill.svg

<svg viewBox="0 0 24 24" fill="currentColor" xmlns="http://www.w3.org/2000/svg"><path d="M3 14L7 16.5L10 13L13 17L15 14.5L18 15L15 12L13 14.5L10 9.5L6.5 13.25L3 10V2.9918C3 2.45531 3.44694 2 3.99826 2H14V8C14 8.55228 14.4477 9 15 9H21V20.9925C21 21.5511 20.5552 22 20.0066 22H3.9934C3.44495 22 3 21.556 3 21.0082V14ZM21 7H16V2.00318L21 7Z"/></svg>

<svg viewBox="0 0 24 24" xmlns="http://www.w3.org/2000/svg"><path fill="none" d="M0 0h24v24H0Z"/><path d="M3 14l4 2.5 3-3.5 3 4 2-2.5 3 .5 -3-3 -2 2.5 -3-5 -3.5 3.75L3 10V2.99c0-.54.44-1 .99-1h10.002v6 0c0 .55.44 1 1 1h6v11.99h0c0 .55-.45 1-1 1 -.01 0-.01 0-.01 0H3.96v-.001c-.55 0-1-.45-1-1v-7.01Zm18-7h-5V2.003L21 7Z"/></svg>
